Origami/32x32/apps/manaplus.svg

<svg width="32" height="32" version="1.1" viewBox="0 0 32 32" xmlns="http://www.w3.org/2000/svg">
 <path d="M 16,3 A 14,14 0 0 0 2,17 14,14 0 0 0 16,31 14,14 0 0 0 30,17 14,14 0 0 0 16,3 Z" style="opacity:.2"/>
 <path d="M 16,2 A 14,14 0 0 0 2,16 14,14 0 0 0 16,30 14,14 0 0 0 30,16 14,14 0 0 0 16,2 Z" style="fill:#d66829"/>
 <path d="m11 12.978636c-1.445015 0-2.5597976 0.727603-3.1464844 1.423828-0.5866867 0.696225-0.796875 1.451172-0.796875 1.451172a1.50015 1.50015 0 0 0 -0.0566406 0.404297v7.220703a1.50015 1.50015 0 1 0 3 0v-6.90625c0.02069-0.05017 0.02882-0.09669 0.146484-0.236328 0.163314-0.193805 0.298531-0.357422 0.853516-0.357422 1.139512 0 1.067567 0.192835 1.009766 0.119141a1.50015 1.50015 0 0 0 -0.009766 0.160156v7.220703a1.50015 1.50015 0 0 0 0.0059 0.150391 1.50015 1.50015 0 0 0 0.05469 0.292968 1.50015 1.50015 0 0 0 0.113281 0.279297 1.50015 1.50015 0 0 0 0.07617 0.128906 1.50015 1.50015 0 0 0 0.08984 0.119141 1.50015 1.50015 0 0 0 0.09961 0.111328 1.50015 1.50015 0 0 0 0.111328 0.101563 1.50015 1.50015 0 0 0 0.386719 0.228515 1.50015 1.50015 0 0 0 0.435547 0.103516 1.50015 1.50015 0 0 0 0.447265 -0.0293 1.50015 1.50015 0 0 0 0.285157 -0.0918 1.50015 1.50015 0 0 0 0.583984 -0.458984 1.50015 1.50015 0 0 0 0.158203 -0.253906 1.50015 1.50015 0 0 0 0.152306 -0.681635v-6.90625c0.02069-0.05016 0.02883-0.0967 0.146484-0.236328 0.163294-0.19379 0.298531-0.357422 0.853516-0.357422s0.690202 0.163617 0.853516 0.357422c0.117666 0.139635 0.125793 0.186162 0.146484 0.236328v6.90625a1.50015 1.50015 0 1 0 3 0v-7.220703a1.50015 1.50015 0 0 0 -0.05664 -0.404297s-0.210188-0.754947-0.796875-1.451172-1.70147-1.423828-3.146485-1.423828c-0.967325 0-1.706199 0.356922-2.318359 0.78125-0.686019-0.451163-1.537515-0.78125-2.681641-0.78125z" style="opacity:.2"/>
 <path d="m13.50007 22.5v-7.21994s0.49993-1.78006 2.49993-1.78006 2.5 1.78006 2.5 1.78006v7.21994m-10 0v-7.21994s0.5-1.78006 2.5-1.78006c3 0 2.49993 1.78006 2.49993 1.78006v7.21994" style="fill:none;stroke-linecap:round;stroke-linejoin:round;stroke-width:3;stroke:#f8bf94"/>
 <path d="m23 8c-0.554 0-1 0.446-1 1v2h-2c-0.554 0-1 0.446-1 1s0.446 1 1 1h2v2c0 0.554 0.446 1 1 1s1-0.446 1-1v-2h2c0.554 0 1-0.446 1-1s-0.446-1-1-1h-2v-2c0-0.554-0.446-1-1-1z" style="opacity:.2"/>
 <rect transform="rotate(90)" x="10" y="-27" width="2" height="8" rx="1" ry="1" style="fill:#ffffff"/>
 <rect transform="scale(-1)" x="-24" y="-15" width="2" height="8" rx="1" ry="1" style="fill:#ffffff"/>
 <path d="m11 12c-1.445015 0-2.5597976 0.727603-3.1464844 1.423828-0.5866867 0.696225-0.796875 1.451172-0.796875 1.451172a1.50015 1.50015 0 0 0 -0.0566406 0.404297v0.978515a1.50015 1.50015 0 0 1 0.0566406 -0.404296s0.2101883-0.754947 0.796875-1.451172c0.5866868-0.696225 1.7014694-1.423828 3.1464844-1.423828 1.144126 0 1.995622 0.330087 2.681641 0.78125 0.61216-0.424328 1.351034-0.78125 2.318359-0.78125 1.445015 0 2.559797 0.727603 3.146484 1.423828s0.796875 1.451172 0.796875 1.451172a1.50015 1.50015 0 0 1 0.056641 0.404296v-0.978515a1.50015 1.50015 0 0 0 -0.056641 -0.404297s-0.210188-0.754947-0.796875-1.451172c-0.586686-0.696225-1.701469-1.423828-3.146484-1.423828-0.967325 0-1.706199 0.356922-2.318359 0.78125-0.686019-0.451163-1.537515-0.78125-2.681641-0.78125zm1 4.091797v0.15625a1.50015 1.50015 0 0 1 0.009766 -0.150391c0.005084 0.006483-0.014235-0.00853-0.009766-0.005859z" style="fill:#ffffff;opacity:.1"/>
 <path d="M 16 2 A 14 14 0 0 0 2 16 A 14 14 0 0 0 2.0214844 16.414062 A 14 14 0 0 1 16 3 A 14 14 0 0 1 29.978516 16.585938 A 14 14 0 0 0 30 16 A 14 14 0 0 0 16 2 z" style="fill:#ffffff;opacity:.2"/>
</svg>

<svg xmlns="http://www.w3.org/2000/svg" width="32" height="32" version="1.1" viewBox="0 0 32 32">
 <path style="opacity:0.2" d="M 16,3 A 14,14 0 0 0 2,17 14,14 0 0 0 16,31 14,14 0 0 0 30,17 14,14 0 0 0 16,3 Z"/>
 <path style="fill:#d66829" d="M 16,2 A 14,14 0 0 0 2,16 14,14 0 0 0 16,30 14,14 0 0 0 30,16 14,14 0 0 0 16,2 Z"/>
 <path style="opacity:0.2" d="m 11,12.978636 c -1.445015,0 -2.5597976,0.727603 -3.1464844,1.423828 -0.5866867,0.696225 -0.796875,1.451172 -0.796875,1.451172 A 1.50015,1.50015 0 0 0 7,16.257933 v 7.220703 a 1.50015,1.50015 0 1 0 3,0 v -6.90625 c 0.02069,-0.05017 0.02882,-0.09669 0.146484,-0.236328 0.163314,-0.193805 0.298531,-0.357422 0.853516,-0.357422 1.139512,0 1.067567,0.192835 1.009766,0.119141 A 1.50015,1.50015 0 0 0 12,16.257933 v 7.220703 a 1.50015,1.50015 0 0 0 0.0059,0.150391 1.50015,1.50015 0 0 0 0.05469,0.292968 1.50015,1.50015 0 0 0 0.113281,0.279297 1.50015,1.50015 0 0 0 0.07617,0.128906 1.50015,1.50015 0 0 0 0.08984,0.119141 1.50015,1.50015 0 0 0 0.09961,0.111328 1.50015,1.50015 0 0 0 0.111328,0.101563 1.50015,1.50015 0 0 0 0.386719,0.228515 1.50015,1.50015 0 0 0 0.435547,0.103516 1.50015,1.50015 0 0 0 0.447265,-0.0293 1.50015,1.50015 0 0 0 0.285157,-0.0918 1.50015,1.50015 0 0 0 0.583984,-0.458984 1.50015,1.50015 0 0 0 0.158203,-0.253906 A 1.50015,1.50015 0 0 0 15,23.478636 v -6.90625 c 0.02069,-0.05016 0.02883,-0.0967 0.146484,-0.236328 0.163294,-0.19379 0.298531,-0.357422 0.853516,-0.357422 0.554985,0 0.690202,0.163617 0.853516,0.357422 0.117666,0.139635 0.125793,0.186162 0.146484,0.236328 v 6.90625 a 1.50015,1.50015 0 1 0 3,0 v -7.220703 a 1.50015,1.50015 0 0 0 -0.05664,-0.404297 c 0,0 -0.210188,-0.754947 -0.796875,-1.451172 C 18.559798,13.706239 17.445015,12.978636 16,12.978636 c -0.967325,0 -1.706199,0.356922 -2.318359,0.78125 C 12.995622,13.308723 12.144126,12.978636 11,12.978636 Z"/>
 <path style="fill:none;stroke:#f8bf94;stroke-width:3;stroke-linecap:round;stroke-linejoin:round" d="M 13.50007,22.5 V 15.28006 C 13.50007,15.28006 14,13.5 16,13.5 c 2,0 2.5,1.78006 2.5,1.78006 V 22.5 m -10,0 v -7.21994 c 0,0 0.5,-1.78006 2.5,-1.78006 3,0 2.49993,1.78006 2.49993,1.78006 V 22.5"/>
 <path style="opacity:0.2" d="m 23,8 c -0.554,0 -1,0.446 -1,1 v 2 h -2 c -0.554,0 -1,0.446 -1,1 0,0.554 0.446,1 1,1 h 2 v 2 c 0,0.554 0.446,1 1,1 0.554,0 1,-0.446 1,-1 v -2 h 2 c 0.554,0 1,-0.446 1,-1 0,-0.554 -0.446,-1 -1,-1 H 24 V 9 C 24,8.446 23.554,8 23,8 Z"/>
 <rect style="fill:#ffffff" width="2" height="8" x="10" y="-27" rx="1" ry="1" transform="rotate(90)"/>
 <rect style="fill:#ffffff" width="2" height="8" x="-24" y="-15" rx="1" ry="1" transform="scale(-1)"/>
 <path style="opacity:0.1;fill:#ffffff" d="M 11 12 C 9.554985 12 8.4402024 12.727603 7.8535156 13.423828 C 7.2668289 14.120053 7.0566406 14.875 7.0566406 14.875 A 1.50015 1.50015 0 0 0 7 15.279297 L 7 16.257812 A 1.50015 1.50015 0 0 1 7.0566406 15.853516 C 7.0566406 15.853516 7.2668289 15.098569 7.8535156 14.402344 C 8.4402024 13.706119 9.554985 12.978516 11 12.978516 C 12.144126 12.978516 12.995622 13.308603 13.681641 13.759766 C 14.293801 13.335438 15.032675 12.978516 16 12.978516 C 17.445015 12.978516 18.559797 13.706119 19.146484 14.402344 C 19.733171 15.098569 19.943359 15.853516 19.943359 15.853516 A 1.50015 1.50015 0 0 1 20 16.257812 L 20 15.279297 A 1.50015 1.50015 0 0 0 19.943359 14.875 C 19.943359 14.875 19.733171 14.120053 19.146484 13.423828 C 18.559798 12.727603 17.445015 12 16 12 C 15.032675 12 14.293801 12.356922 13.681641 12.78125 C 12.995622 12.330087 12.144126 12 11 12 z M 12 16.091797 L 12 16.248047 A 1.50015 1.50015 0 0 1 12.009766 16.097656 C 12.01485 16.104139 11.995531 16.089126 12 16.091797 z"/>
 <path style="fill:#ffffff;opacity:0.2" d="M 16 2 A 14 14 0 0 0 2 16 A 14 14 0 0 0 2.0214844 16.414062 A 14 14 0 0 1 16 3 A 14 14 0 0 1 29.978516 16.585938 A 14 14 0 0 0 30 16 A 14 14 0 0 0 16 2 z"/>
</svg>
